X: 97
T:Gan Ainm
M:4/4
L:1/8
R:Hornpipe
D:Session Tape - Belfast 1984 (with Andy Dickson and Ciaran Carson)
Z:Bernie Stocks
K:D
dcde fdAF | GFGA BGE2 | efge cABc |1 defd A4 :|2 d2dc d4 || f3g a3f | gfga bgeg |\
f2df bagf | edcB A3e | fefg afdf | gfga bgeg | f2df e2ce | d2dc d4 ||
<end>
<start>
